X:1
T:Sleeping for the Flag
M:4/4
L:1/8
K:Eb
 G3 FE FG B| c e3 c e3| B3 Ge GF E| F6 z2| G3 FE FG B| c e3 c e3| dB AF B3 B|\
 E6 z2| G3 FE FG A| c e3 c e3| B3 Ge GF E| F6 z2| G3 FE FG B| c e3 c e3|\
 dB AF B3 B| E6 z2| F3- G A3 c| B4 e4| f3 ed cB =A| B6 z2| G3 FE FG B|\
 c e3 c e3| dB AF B3 B| E6 z2|

